svg/logo/viber_messenger_fill.svg

<?xml version="1.0" encoding="UTF-8"?>
<svg width="24px" height="24px" viewBox="0 0 24 24" version="1.1" xmlns="http://www.w3.org/2000/svg" xmlns:xlink="http://www.w3.org/1999/xlink">
    <title>viber_messenger_fill</title>
    <g id="Icon" stroke="none" stroke-width="1" fill="none" fill-rule="evenodd">
        <g id="Logo" transform="translate(-912.000000, -240.000000)">
            <g id="viber_messenger_fill" transform="translate(912.000000, 240.000000)">
                <path d="M24,0 L24,24 L0,24 L0,0 L24,0 Z M12.5935,23.2578 L12.5819,23.2595 L12.5109,23.295 L12.4919,23.2987 L12.4767,23.295 L12.4057,23.2595 C12.3958,23.2564 12.387,23.259 12.3821,23.2649 L12.378,23.2758 L12.3609,23.7031 L12.3659,23.7235 L12.3769,23.7357 L12.4805,23.8097 L12.4953,23.8136 L12.5071,23.8097 L12.6107,23.7357 L12.6233,23.7197 L12.6267,23.7031 L12.6096,23.2758 C12.6076,23.2657 12.601,23.2593 12.5935,23.2578 Z M12.8584,23.1453 L12.8445,23.1473 L12.6598,23.2397 L12.6499,23.2499 L12.6472,23.2611 L12.6651,23.6906 L12.6699,23.7034 L12.6784,23.7105 L12.8793,23.8032 C12.8914,23.8069 12.9022,23.803 12.9078,23.7952 L12.9118,23.7812 L12.8777,23.1665 C12.8753,23.1546 12.8674,23.147 12.8584,23.1453 Z M12.143,23.1473 C12.1332,23.1424 12.1222,23.1453 12.1156,23.1526 L12.1099,23.1665 L12.0758,23.7812 C12.0751,23.7927 12.0828,23.8019 12.0926,23.8046 L12.1083,23.8032 L12.3092,23.7105 L12.3186,23.7024 L12.3225,23.6906 L12.3404,23.2611 L12.3372,23.2485 L12.3278,23.2397 L12.143,23.1473 Z" id="MingCute" fill-rule="nonzero"></path>
                <path d="M9.36509,3.10769 C11.461,2.9908 13.5391,2.9908 15.635,3.10769 L16.2670787,3.14422029 L16.2670787,3.14422029 L16.8490706,3.18628458 C17.7809,3.26582408 18.5309,3.40457714 19.2334,3.78332 C20.0446,4.22066 20.8329,5.0112 21.2681,5.82355 C21.6825643,6.59732929 21.805826,7.41557607 21.8782801,8.46158904 L21.9311,9.37196 L21.9311,9.37196 C22.0063,10.7906 22.0063,12.2097 21.9311,13.6283 L21.8782801,14.5386867 C21.805826,15.5847082 21.6825643,16.4029286 21.2681,17.1767 C20.8329,17.9891 20.0446,18.7796 19.2334,19.2169 C18.3904,19.6714429 17.479,19.7803122 16.2670787,19.8560469 L15.635,19.8926 L15.635,19.8926 C14.591,19.9508 13.5459,20.0001 12.5001,20.0001 L10.8660462,20.004825 C10.7008819,20.0041625 10.5344666,20.0027187 10.3674905,20.0000969 L9.86557,19.9883 L7.62476,21.781 C7.32459,22.0211 6.91334,22.068 6.56687,21.9014 C6.25890556,21.7534 6.05058358,21.4600963 6.00809184,21.1267684 L6.00006,21.0001 L6.00006,19.3336 C5.92175,19.2974 5.84406,19.2586 5.76672,19.2169 C4.95557,18.7796 4.16719,17.9891 3.73206,17.1767 C3.31759571,16.4029286 3.19428459,15.5847082 3.1218336,14.5386867 L3.08591457,13.9444357 C3.0802873,13.8412612 3.07471929,13.7359286 3.06903,13.6283 C2.99359,12.2061 2.99359,10.7942 3.06903,9.37198 L3.1218336,8.46160271 C3.19428459,7.41558224 3.31759571,6.59732929 3.73206,5.82355 C4.16719,5.0112 4.95557,4.22066 5.76672,3.78332 C6.53944643,3.36670286 7.36969107,3.24047337 8.43617366,3.16401836 L9.04239419,3.12580573 C9.14769378,3.1197776 9.25521429,3.11379929 9.36509,3.10769 Z M8.965,6.88506 C7.98804,7.30376 7.1521,8.36291 7.1927,9.46588 L7.20187855,9.62720116 L7.20187855,9.62720116 L7.22070625,9.82154636 C7.2248063,9.85656837 7.22942691,9.89287574 7.23462731,9.93042315 L7.27326142,10.1702255 C7.4516639,11.1437297 7.999471,12.7252633 9.6376,14.3634 C11.2757367,16.0015367 12.8572116,16.5493456 13.8307244,16.7277439 L14.0705306,16.7663769 L14.0705306,16.7663769 L14.2805794,16.7910942 L14.2805794,16.7910942 L14.5351,16.8083 L14.5351,16.8083 C15.6365,16.8488 16.6953,16.0174 17.1137,15.0411 C17.2156,14.8034 17.1902,14.5174 17.0194,14.2987 C16.58575,13.743325 16.0370687,13.3060188 15.4671812,12.8992844 L14.8937,12.4995 L14.8937,12.4995 C14.5633,12.2708 14.1089,12.3416 13.8655,12.6655 L13.2308,13.6322 C13.1604,13.7394 13.0204,13.7763 12.909,13.7126 C12.4796,13.4671 11.8535,13.0485 11.403,12.598 C10.953,12.148 10.5598,11.5501 10.3391,11.1483 C10.2811,11.0427 10.3132,10.9122 10.4099,10.8404 L11.3855,10.1159 C11.6765,9.86404 11.7276,9.43621 11.5134,9.12287 L11.1838943,8.63792257 C10.7816294,8.05212012 10.3093489,7.41801 9.68757,6.96448 C9.46923,6.80522 9.19304,6.78733 8.965,6.88506 Z M13.5933,8.88725 C13.0726,8.7032 12.5013,8.97613 12.3172,9.49684 C12.1332,10.0176 12.4061,10.5889 12.9268,10.7729 C13.03992,10.8129 13.135312,10.893668 13.194544,10.996772 L13.2319,11.078 C13.4159,11.5987 13.9872,11.8716 14.508,11.6876 C15.0287,11.5035 15.3016,10.9322 15.1176,10.4115 C14.8662,9.70043 14.3044,9.13857 13.5933,8.88725 Z M13.3172,6.66689 C13.1332,7.1876 13.4061,7.75893 13.9268,7.94297 C14.9206,8.29422 15.7099,9.08355 16.0612,10.0773 C16.2452,10.598 16.8165,10.871 17.3373,10.6869 C17.858,10.5029 18.1309,9.93154 17.9469,9.41082 C17.3942,7.84735 16.1568,6.6099 14.5933,6.05729 C14.0726,5.87325 13.5013,6.14617 13.3172,6.66689 Z" id="形状" fill="#09244B"></path>
            </g>
        </g>
    </g>
</svg>

<svg xmlns="http://www.w3.org/2000/svg" width="24" height="24"><g fill="none" fill-rule="evenodd"><path d="M24 0v24H0V0h24ZM12.594 23.258l-.012.002-.071.035-.02.004-.014-.004-.071-.036c-.01-.003-.019 0-.024.006l-.004.01-.017.428.005.02.01.013.104.074.015.004.012-.004.104-.074.012-.016.004-.017-.017-.427c-.002-.01-.009-.017-.016-.018Zm.264-.113-.014.002-.184.093-.01.01-.003.011.018.43.005.012.008.008.201.092c.012.004.023 0 .029-.008l.004-.014-.034-.614c-.003-.012-.01-.02-.02-.022Zm-.715.002a.023.023 0 0 0-.027.006l-.006.014-.034.614c0 .012.007.02.017.024l.015-.002.201-.093.01-.008.003-.011.018-.43-.003-.012-.01-.01-.184-.092Z"/><path fill="#09244B" d="M9.365 3.108a56.096 56.096 0 0 1 6.27 0l.632.036.582.042c.932.08 1.682.219 2.384.597a5.311 5.311 0 0 1 2.035 2.04c.415.774.538 1.593.61 2.639l.053.91a40.18 40.18 0 0 1 0 4.256l-.053.91c-.072 1.047-.195 1.865-.61 2.639a5.31 5.31 0 0 1-2.035 2.04c-.843.454-1.754.563-2.966.639l-.632.037c-1.044.058-2.09.107-3.135.107l-1.634.005c-.165 0-.332-.002-.499-.005l-.501-.012-2.241 1.793a1 1 0 0 1-1.617-.654L6 21v-1.666a4.24 4.24 0 0 1-.233-.117 5.31 5.31 0 0 1-2.035-2.04c-.414-.774-.538-1.592-.61-2.638l-.036-.595-.017-.316a40.052 40.052 0 0 1 0-4.256l.053-.91c.072-1.046.196-1.865.61-2.638a5.31 5.31 0 0 1 2.035-2.04c.772-.417 1.603-.544 2.67-.62l.605-.038.323-.018Zm-.4 3.777c-.977.419-1.813 1.478-1.772 2.58l.009.162.019.195c.004.035.008.07.014.108l.038.24c.179.974.726 2.555 2.365 4.193 1.638 1.639 3.22 2.186 4.193 2.365l.24.038.21.025.254.017c1.101.04 2.16-.79 2.579-1.767a.735.735 0 0 0-.095-.742c-.433-.556-.982-.993-1.552-1.4l-.573-.4a.751.751 0 0 0-1.028.166l-.635.967a.242.242 0 0 1-.322.08c-.43-.245-1.056-.663-1.506-1.114-.45-.45-.843-1.048-1.064-1.45a.24.24 0 0 1 .07-.308l.976-.724a.752.752 0 0 0 .128-.993l-.33-.485c-.401-.586-.874-1.22-1.495-1.674a.735.735 0 0 0-.723-.079Zm4.628 2.002a1 1 0 0 0-.666 1.886c.113.04.208.12.268.224l.037.081a1 1 0 0 0 1.886-.666 2.504 2.504 0 0 0-1.525-1.525Zm-.276-2.22a1 1 0 0 0 .61 1.276 3.513 3.513 0 0 1 2.134 2.134 1 1 0 1 0 1.886-.666 5.513 5.513 0 0 0-3.354-3.354 1 1 0 0 0-1.276.61Z"/></g></svg>
